X:1
T:The Old Favourite
M:6/8
L:1/8
R:jig
K:G
B3 BAB | dBA G2B | ded d2B | ded B2A |B3 BAB | dBA G2B | ded cBA |1 G3 G2A :|2 G3 G(3B^cd  ||
g3 f3 | efe edB | ded d2B | ded B2d | g3 f3 | efe edB | dge dBA | G3 G (3B^cd |
g3 f3 | efe edB | ded d2B | ded B2d | g3 f3 | efe edB | dge dge | dge dBA |]
